X: 364
T:General Stewart
C:William Gow
S:Book, Trad Celtic Vln Music of Cape Breton (1996)
Z:https://nigelgatherer.com/
L:1/8
M:4/4
K:Dmix
=c | A<dd>A FDDF | EcGc ECCE | DA<dd>A F[DA][DA]g | fde^c d/d/d d :|
g | fddf a<daf | gcca g<cge | fddf a<dag | e<cge d2 dc |
d2 db a<daf | gcca g<cge | dfeg fagb | afge [df]/[df]/d d |]

